Numix-GalliumOS/48/devices/gnome-dev-network.svg

<?xml version="1.0" encoding="UTF-8" standalone="no"?>
<svg
   xmlns:dc="http://purl.org/dc/elements/1.1/"
   xmlns:cc="http://creativecommons.org/ns#"
   xmlns:rdf="http://www.w3.org/1999/02/22-rdf-syntax-ns#"
   xmlns:svg="http://www.w3.org/2000/svg"
   xmlns="http://www.w3.org/2000/svg"
   xmlns:sodipodi="http://sodipodi.sourceforge.net/DTD/sodipodi-0.dtd"
   xmlns:inkscape="http://www.inkscape.org/namespaces/inkscape"
   viewBox="0 0 48 48"
   id="svg1591"
   version="1.1"
   inkscape:version="0.91 r"
   sodipodi:docname="gnome-dev-network.svg">
  <metadata
     id="metadata1603">
    <rdf:RDF>
      <cc:Work
         rdf:about="">
        <dc:format>image/svg+xml</dc:format>
        <dc:type
           rdf:resource="http://purl.org/dc/dcmitype/StillImage" />
      </cc:Work>
    </rdf:RDF>
  </metadata>
  <defs
     id="defs1601" />
  <sodipodi:namedview
     pagecolor="#ffffff"
     bordercolor="#666666"
     borderopacity="1"
     objecttolerance="10"
     gridtolerance="10"
     guidetolerance="10"
     inkscape:pageopacity="0"
     inkscape:pageshadow="2"
     inkscape:window-width="640"
     inkscape:window-height="480"
     id="namedview1599" />
  <g
     style="line-height:normal;color:#000"
     id="g1593">
    <path
       style="opacity:.8;fill:#eeeeec"
       d="M 5.2348373,8.0528561 C 4.5601653,8.1963107 4.0352723,8.858682 4.0503153,9.5476248 l 0,27.9023412 c 7.9e-5,0.782637 0.712831,1.494689 1.496238,1.494768 l 36.9072087,0 c 0.783407,-7.9e-5 1.496159,-0.712131 1.496238,-1.494768 l 0,-24.881663 c -7.9e-5,-0.782638 -0.712831,-1.494689 -1.496238,-1.494768 l -14.463636,0 0,-1.5259102 C 27.990047,8.7649869 27.277295,8.0529345 26.493888,8.0528561 l -20.9473347,0 c -0.103527,-0.010831 -0.208188,-0.010831 -0.311716,0 z"
       id="path1595" />
    <path
       style="opacity:.8"
       d="M 5.1875 8 C 4.5111319 8.1439566 3.9849192 8.8086463 4 9.5 L 4 37.5 C 4.0000786 38.285377 4.7146233 38.999921 5.5 39 L 42.5 39 C 43.285377 38.999921 43.999921 38.285377 44 37.5 L 44 12.53125 C 43.999921 11.745873 43.285377 11.031329 42.5 11.03125 L 28 11.03125 L 28 9.5 C 27.999921 8.7146233 27.285377 8.0000786 26.5 8 L 5.5 8 C 5.3962117 7.9891307 5.2912883 7.9891307 5.1875 8 z M 23 16 L 24 16 C 28.41199 16 32 19.5893 32 24 C 32 28.4106 29.411697 32 24 32 C 19 32 16 28.4106 16 24 C 16 19.5893 19.587724 16 23 16 z M 24.65625 17.125 C 24.65175 17.16 24.66025 17.1485 24.65625 17.1875 C 24.584821 17.8659 24.20536 17.428 24.0625 17.5 C 23.919643 17.5715 22.96875 18.8928 22.96875 18.75 C 22.96875 18.6071 23.15625 18.40625 23.15625 18.40625 C 23.15625 18.40625 23.207386 17.80265 23.09375 17.15625 C 22.783164 17.19655 22.483796 17.2325 22.1875 17.3125 L 21.25 18.84375 C 21.329852 18.85575 21.428126 18.8785 21.53125 18.9375 C 22.031251 19.2232 22.232141 19.49625 22.375 19.53125 C 22.517858 19.56725 23.151788 18.6612 22.6875 19.625 C 22.223214 20.5892 22.004466 20.9107 21.46875 21.125 C 21.43527 21.135 21.40809 21.14025 21.375 21.15625 C 21.238114 21.32035 21.043993 21.4815 20.8125 21.6875 C 20.307425 22.1377 20.0625 22.20645 20.0625 22.65625 C 20.0625 23.10625 20.072303 23.4626 19.71875 24.0625 C 19.365199 24.6623 19.129724 24.64365 19.28125 25.09375 C 19.432777 25.54365 19.533789 26.3499 19.28125 26 C 19.02871 25.6502 19.139531 24.94425 18.9375 25.34375 C 18.760723 25.69385 18.34427 25.828 18.3125 26.1875 C 18.308 26.2368 18.29982 26.28075 18.3125 26.34375 C 18.31503 26.35375 18.3091 26.359 18.3125 26.375 C 18.442138 26.8077 19.1875 26.221 19.1875 26.5625 C 19.1875 26.9122 18.535974 26.8875 18.6875 27.1875 C 18.839022 27.4872 19.432424 26.6007 19.9375 26.75 C 20.442571 26.9 20.107932 26.9875 20.5625 27.1875 C 21.017068 27.3875 21.28125 27.60635 21.28125 27.90625 C 21.28125 28.20625 22.714025 28.0625 22.5625 28.5625 C 22.410978 29.0624 22.267069 28.9502 21.8125 29.5 C 21.562084 29.803 21.334388 29.9789 21.1875 30.125 C 21.393414 30.2756 21.44643 30.36125 21.6875 30.28125 C 22.008921 30.17435 21.593747 30.0177 21.84375 29.875 C 21.906248 29.839 21.93192 29.81225 21.96875 29.78125 C 22.00558 29.75125 22.04911 29.7105 22.125 29.6875 C 22.276786 29.6425 22.584821 29.625 23.28125 29.625 C 24.674106 29.625 25.34375 29.6875 25.34375 29.6875 C 25.34375 29.6875 25.803574 29.6871 25.375 29.9375 C 25.061814 30.1199 24.42367 30.44425 24.34375 30.53125 C 24.375134 30.52825 24.45089 30.523 24.53125 30.5 C 25.174107 30.3213 26.0625 30.16575 26.3125 30.09375 C 26.418429 30.06365 26.979666 29.7704 27.4375 29.5625 C 27.45617 29.5193 27.44993 29.4805 27.46875 29.4375 L 27.4375 29.4375 C 27.083946 29.2862 26.805227 28.60815 26.90625 28.40625 C 27.007264 28.20425 27.24746 28.03625 27.5 27.53125 C 27.752539 27.02615 27.707107 27.37755 27 26.46875 C 26.292894 25.55975 25.916055 26.52155 25.5625 26.21875 C 25.208947 25.91575 24.490545 25.64915 24.1875 25.09375 C 23.884449 24.53815 24.03125 24.94975 24.03125 24.34375 C 24.03125 23.73695 23.973475 24.1928 24.125 23.6875 C 24.276522 23.1829 24.682423 23.13485 25.1875 22.78125 C 25.256946 22.73125 25.33564 22.7225 25.40625 22.6875 C 25.293089 22.58 25.127969 22.34665 24.8125 22.03125 C 24.8125 22.03125 25.122461 21.38235 25.375 21.28125 C 25.62011 21.18455 25.761876 21.2175 26.09375 21.3125 C 26.10784 21.2583 26.1096 21.2487 26.125 21.125 C 26.175504 20.7211 25.96875 20.9399 25.96875 20.6875 C 25.96875 20.435 26.083948 20.69485 26.4375 20.59375 C 26.791056 20.49275 26.802696 19.80505 27.15625 19.90625 C 27.509803 20.00725 27.509454 19.7669 27.8125 19.3125 C 28.115547 18.8573 27.810313 19.10825 27.40625 18.90625 C 27.002189 18.70425 27.351024 19.2093 27.25 19.5625 C 27.148986 19.9159 26.853553 19.6948 26.5 18.9375 C 26.14645 18.1801 26.454219 18.4808 26.65625 17.875 C 26.691607 17.7687 26.73069 17.71925 26.78125 17.65625 C 26.124406 17.37055 25.401925 17.194 24.65625 17.125 z M 26 19.8125 C 26.153891 19.8361 26.26799 20.00545 26.34375 20.15625 C 26.38415 20.23845 26.35937 20.26225 26.3125 20.28125 C 26.3125 20.28125 26.375 20.45 26.375 20.5 C 26.375 20.55 26.27116 20.53175 26.03125 20.46875 C 25.851327 20.42215 25.971817 20.4025 26.09375 20.3125 L 25.875 20.3125 C 25.786609 20.3125 25.74004 20.29725 25.71875 20.28125 C 25.73219 20.29225 25.72815 20.2865 25.75 20.3125 C 25.77841 20.34725 25.779505 20.364344 25.78125 20.375 C 25.743813 20.37175 25.644575 20.3565 25.5625 20.375 C 25.398358 20.4129 25.5805 20.29585 25.65625 20.15625 C 25.65625 20.15625 25.69997 20.18675 25.71875 20.21875 C 25.75031 20.14925 25.8125 20.02045 25.8125 19.84375 C 25.875627 19.81765 25.94871 19.7965 26 19.8125 z M 29.8125 20.25 C 29.560054 20.4372 29.234426 20.8593 28.96875 21.125 C 28.514182 21.5788 29.216211 21.6365 29.46875 21.6875 C 29.721289 21.7384 29.963672 21.5625 30.46875 21.5625 C 30.4598 21.5385 30.4468 21.524 30.4375 21.5 C 30.369161 21.508 30.30155 21.53125 30.21875 21.53125 C 29.922594 21.53125 30.11796 21.24705 30.1875 20.84375 C 30.082079 20.63725 29.937417 20.444 29.8125 20.25 z M 26.6875 21.1875 C 26.581023 21.1552 26.41132 21.2642 26.21875 21.375 C 26.355476 21.5744 25.939721 22.13335 25.71875 22.53125 C 25.70989 22.54125 25.6957 22.5465 25.6875 22.5625 C 26.120641 22.4901 26.801583 22.59125 28.3125 22.96875 C 28.3125 22.96875 28.867729 22.82945 28.96875 23.03125 C 29.004638 23.10145 29.206345 23.14025 29.4375 23.15625 C 30.048035 22.91575 29.71875 22.70555 29.71875 22.21875 C 29.71875 21.71385 28.961477 22.28355 29.0625 22.03125 C 29.163517 21.77875 28.947304 21.7909 28.59375 21.4375 C 28.240196 21.084 28.315037 22.3148 28.0625 22.0625 C 27.809959 21.8125 27.788522 22.0145 27.6875 21.8125 C 27.586486 21.6105 27.25 21.28125 27.25 21.28125 C 27.25 21.28125 27.48801 21.5574 27.4375 22.0625 C 27.386992 22.5672 26.6875 22.125 26.6875 22.125 C 26.6875 22.125 26.797968 22.08125 27 22.03125 C 27.20203 21.98065 26.964026 21.6661 26.8125 21.3125 C 26.774632 21.2264 26.73405 21.2025 26.6875 21.1875 z M 30.9375 23.6875 C 30.881361 23.7285 30.78821 23.7865 30.71875 23.8125 C 30.163165 24.0145 29.78125 24.4375 29.78125 24.4375 C 29.78125 24.4375 30.420589 24.43955 30.875 24.84375 C 30.90796 24.56855 30.9375 24.2842 30.9375 24 C 30.9375 23.8974 30.942 23.7886 30.9375 23.6875 z "
       id="path1597" />
  </g>
</svg>

<svg xmlns="http://www.w3.org/2000/svg" viewBox="0 0 48 48">
 <g style="color:#000">
  <path d="m 5.235 8.05 c -0.675 0.143 -1.2 0.806 -1.185 1.495 l 0 27.902 c 0 0.783 0.713 1.495 1.496 1.495 l 36.907 0 c 0.783 0 1.496 -0.712 1.496 -1.495 l 0 -24.882 c 0 -0.783 -0.713 -1.495 -1.496 -1.495 l -14.464 0 0 -1.526 c 0 -0.783 -0.713 -1.495 -1.496 -1.495 l -20.947 0 c -0.104 -0.011 -0.208 -0.011 -0.312 0 z" style="fill:#eeeeec;opacity:0.8"/>
  <path d="m 5.188 8 c -0.676 0.144 -1.203 0.809 -1.188 1.5 l 0 28 c 0 0.785 0.715 1.5 1.5 1.5 l 37 0 c 0.785 0 1.5 -0.715 1.5 -1.5 l 0 -24.969 c 0 -0.785 -0.715 -1.5 -1.5 -1.5 l -14.5 0 l 0 -1.531 c 0 -0.785 -0.715 -1.5 -1.5 -1.5 l -21 0 c -0.104 -0.011 -0.209 -0.011 -0.313 0 z m 17.813 8 l 1 0 c 4.412 0 8 3.589 8 8 c 0 4.411 -2.588 8 -8 8 c -5 0 -8 -3.589 -8 -8 c 0 -4.411 3.588 -8 7 -8 z m 1.656 1.125 c -0.005 0.035 0.004 0.023 0 0.063 c -0.071 0.678 -0.451 0.241 -0.594 0.313 c -0.143 0.072 -1.094 1.393 -1.094 1.25 c 0 -0.143 0.188 -0.344 0.188 -0.344 c 0 0 0.051 -0.604 -0.063 -1.25 c -0.311 0.04 -0.61 0.076 -0.906 0.156 l -0.938 1.531 c 0.08 0.012 0.178 0.035 0.281 0.094 c 0.5 0.286 0.701 0.559 0.844 0.594 c 0.143 0.036 0.777 -0.87 0.313 0.094 c -0.464 0.964 -0.683 1.286 -1.219 1.5 c -0.033 0.01 -0.061 0.015 -0.094 0.031 c -0.137 0.164 -0.331 0.325 -0.563 0.531 c -0.505 0.45 -0.75 0.519 -0.75 0.969 c 0 0.45 0.01 0.806 -0.344 1.406 c -0.354 0.6 -0.589 0.581 -0.438 1.031 c 0.152 0.45 0.253 1.256 0 0.906 c -0.253 -0.35 -0.142 -1.056 -0.344 -0.656 c -0.177 0.35 -0.593 0.484 -0.625 0.844 c -0.005 0.049 -0.013 0.093 0 0.156 c 0.003 0.01 -0.003 0.015 0 0.031 c 0.13 0.433 0.875 -0.154 0.875 0.188 c 0 0.35 -0.652 0.325 -0.5 0.625 c 0.152 0.3 0.745 -0.587 1.25 -0.438 c 0.505 0.15 0.17 0.238 0.625 0.438 c 0.455 0.2 0.719 0.419 0.719 0.719 c 0 0.3 1.433 0.156 1.281 0.656 c -0.152 0.5 -0.295 0.388 -0.75 0.938 c -0.25 0.303 -0.478 0.479 -0.625 0.625 c 0.206 0.151 0.259 0.236 0.5 0.156 c 0.321 -0.107 -0.094 -0.264 0.156 -0.406 c 0.062 -0.036 0.088 -0.063 0.125 -0.094 c 0.037 -0.03 0.08 -0.071 0.156 -0.094 c 0.152 -0.045 0.46 -0.063 1.156 -0.063 c 1.393 0 2.063 0.063 2.063 0.063 c 0 0 0.46 0 0.031 0.25 c -0.313 0.182 -0.951 0.507 -1.031 0.594 c 0.031 -0.003 0.107 -0.008 0.188 -0.031 c 0.643 -0.179 1.531 -0.334 1.781 -0.406 c 0.106 -0.03 0.667 -0.323 1.125 -0.531 c 0.019 -0.043 0.012 -0.082 0.031 -0.125 l -0.031 0 c -0.354 -0.151 -0.632 -0.829 -0.531 -1.031 c 0.101 -0.202 0.341 -0.37 0.594 -0.875 c 0.253 -0.505 0.207 -0.154 -0.5 -1.063 c -0.707 -0.909 -1.084 0.053 -1.438 -0.25 c -0.354 -0.303 -1.072 -0.57 -1.375 -1.125 c -0.303 -0.556 -0.156 -0.144 -0.156 -0.75 c 0 -0.607 -0.058 -0.151 0.094 -0.656 c 0.152 -0.505 0.557 -0.553 1.063 -0.906 c 0.069 -0.05 0.148 -0.059 0.219 -0.094 c -0.113 -0.108 -0.278 -0.341 -0.594 -0.656 c 0 0 0.31 -0.649 0.563 -0.75 c 0.245 -0.097 0.387 -0.064 0.719 0.031 c 0.014 -0.054 0.016 -0.064 0.031 -0.188 c 0.051 -0.404 -0.156 -0.185 -0.156 -0.438 c 0 -0.253 0.115 0.007 0.469 -0.094 c 0.354 -0.101 0.365 -0.789 0.719 -0.688 c 0.354 0.101 0.353 -0.139 0.656 -0.594 c 0.303 -0.455 -0.002 -0.204 -0.406 -0.406 c -0.404 -0.202 -0.055 0.303 -0.156 0.656 c -0.101 0.353 -0.396 0.132 -0.75 -0.625 c -0.354 -0.757 -0.046 -0.457 0.156 -1.063 c 0.035 -0.106 0.074 -0.156 0.125 -0.219 c -0.657 -0.286 -1.379 -0.462 -2.125 -0.531 z m 1.344 2.688 c 0.154 0.024 0.268 0.193 0.344 0.344 c 0.04 0.082 0.016 0.106 -0.031 0.125 c 0 0 0.063 0.169 0.063 0.219 c 0 0.05 -0.104 0.032 -0.344 -0.031 c -0.18 -0.047 -0.059 -0.066 0.063 -0.156 l -0.219 0 c -0.088 0 -0.135 -0.015 -0.156 -0.031 c 0.013 0.011 0.009 0.005 0.031 0.031 c 0.028 0.035 0.03 0.052 0.031 0.063 c -0.037 -0.003 -0.137 -0.018 -0.219 0 c -0.164 0.038 0.018 -0.079 0.094 -0.219 c 0 0 0.044 0.03 0.063 0.063 c 0.032 -0.07 0.094 -0.198 0.094 -0.375 c 0.063 -0.026 0.136 -0.047 0.188 -0.031 z m 3.813 0.438 c -0.252 0.187 -0.578 0.609 -0.844 0.875 c -0.455 0.454 0.247 0.512 0.5 0.563 c 0.253 0.051 0.495 -0.125 1 -0.125 c -0.009 -0.024 -0.022 -0.038 -0.031 -0.063 c -0.068 0.008 -0.136 0.031 -0.219 0.031 c -0.296 0 -0.101 -0.284 -0.031 -0.688 c -0.105 -0.206 -0.25 -0.4 -0.375 -0.594 z m -3.125 0.938 c -0.106 -0.032 -0.276 0.077 -0.469 0.188 c 0.137 0.199 -0.279 0.758 -0.5 1.156 c -0.009 0.01 -0.023 0.015 -0.031 0.031 c 0.433 -0.072 1.114 0.029 2.625 0.406 c 0 0 0.555 -0.139 0.656 0.063 c 0.036 0.07 0.238 0.109 0.469 0.125 c 0.611 -0.241 0.281 -0.451 0.281 -0.938 c 0 -0.505 -0.757 0.065 -0.656 -0.188 c 0.101 -0.253 -0.115 -0.24 -0.469 -0.594 c -0.354 -0.354 -0.279 0.877 -0.531 0.625 c -0.253 -0.25 -0.274 -0.048 -0.375 -0.25 c -0.101 -0.202 -0.438 -0.531 -0.438 -0.531 c 0 0 0.238 0.276 0.188 0.781 c -0.051 0.505 -0.75 0.063 -0.75 0.063 c 0 0 0.11 -0.044 0.313 -0.094 c 0.202 -0.051 -0.036 -0.365 -0.188 -0.719 c -0.038 -0.086 -0.078 -0.11 -0.125 -0.125 z m 4.25 2.5 c -0.056 0.041 -0.149 0.099 -0.219 0.125 c -0.556 0.202 -0.938 0.625 -0.938 0.625 c 0 0 0.639 0.002 1.094 0.406 c 0.033 -0.275 0.063 -0.56 0.063 -0.844 c 0 -0.103 0.005 -0.211 0 -0.313 z" style="opacity:0.8"/>
 </g>
</svg>
